X:110
T:Nelson Hornpipe
R:Hornpipe
O:England
M:4/4
A:Lancashire
B:Winder
K:G
Bc|\
dBec BAdB | GFAF G2Bd | eBge edcB | BAcA GFED |\
dBec BAdB | GFAF Ggec | BAcA GFAF | G2G2 G2 ::\
Bc|\
degf edcB | cdef g2fe | edcB cBAG | F2D2 D2AF |\
DFAF GBdB | cege dBec | BAcA GFAF | G2G2 G2:|**
